Obsidian/actions/24s/view-statistics.svg

<svg height="24" viewBox="0 0 24 24" width="24" xmlns="http://www.w3.org/2000/svg"><path d="m13 3v10h2v-10zm-12 2v8h2v-8zm8 2v6h2v-6zm-4 2v4h2v-4z" fill="#bebebe" transform="translate(4 4)"/></svg>

<svg xmlns="http://www.w3.org/2000/svg" width="24" height="24" viewBox="0 0 24 24">
 <defs>
  <style id="current-color-scheme" type="text/css">
   .ColorScheme-Text { color:#bebebe; } .ColorScheme-Highlight { color:#4285f4; }
  </style>
 </defs>
 <path style="fill:currentColor" class="ColorScheme-Text" d="M 13 3 L 13 13 L 15 13 L 15 3 L 13 3 z M 1 5 L 1 13 L 3 13 L 3 5 L 1 5 z M 9 7 L 9 13 L 11 13 L 11 7 L 9 7 z M 5 9 L 5 13 L 7 13 L 7 9 L 5 9 z" transform="translate(4 4)"/>
</svg>
